img/svg/logo-button.svg

<svg width="65" height="56" viewBox="0 0 65 56" fill="none" xmlns="http://www.w3.org/2000/svg">
<g clip-path="url(#clip0)">
<path fill-rule="evenodd" clip-rule="evenodd" d="M23.0753 45.5552C22.9748 46.0455 22.9748 46.3398 23.025 46.3888C17.3947 46.634 14.2779 45.5061 13.6244 43.0543C13.1217 41.1419 14.1271 38.4939 16.5904 35.1103C16.1882 35.3555 15.8363 35.5517 15.4342 35.7478C14.1774 36.3363 12.9206 36.5324 11.7644 36.3853C10.6082 36.2382 9.55248 35.6988 8.64761 34.8652C7.94382 34.2277 7.2903 33.345 6.78759 32.2662C6.53624 32.1191 6.33516 31.972 6.0838 31.8249C6.93841 37.4641 9.65302 42.5149 13.5741 46.3398C18.4001 51.0473 25.0359 53.9405 32.3754 53.9405C39.7149 53.9405 46.3506 51.0473 51.1766 46.3398C55.0977 42.5149 57.7621 37.5622 58.6669 32.021C58.5161 32.1191 58.4156 32.1681 58.2648 32.2662C57.7621 33.345 57.1086 34.1786 56.4048 34.8652C55.4999 35.6988 54.4442 36.2382 53.288 36.3853C52.1318 36.5324 50.9253 36.3363 49.6182 35.7478C49.2161 35.5517 48.8642 35.3555 48.462 35.1103C50.9253 38.4939 51.9307 41.1419 51.428 43.0543C50.5231 46.4378 44.6414 46.683 41.776 46.3888C41.776 46.8792 41.6755 47.2715 41.3738 47.4676C40.2176 48.2032 37.1008 49.7233 32.6267 49.7723C28.7056 49.8214 25.1867 48.4483 23.3267 47.0263C23.1256 46.8792 23.025 46.683 23.025 46.3888C25.6894 46.0946 27.5997 45.0648 28.7559 43.2504C29.8116 41.5832 30.1635 39.3275 29.9121 36.3853C29.8618 35.8459 29.8116 35.7968 29.9624 35.3065L31.7721 27.6567C31.9229 26.9212 31.8224 26.3818 31.1689 25.7443C29.4094 24.1751 27.6499 22.7531 25.9407 21.4781C25.5386 21.4781 25.1364 21.4781 24.7342 21.5762C26.5942 22.9492 28.404 24.4694 30.3143 26.1856C30.8673 26.627 30.9175 27.1173 30.817 27.8039L29.1078 35.1103C29.0072 35.5517 29.0072 35.944 29.0072 36.4834C29.1078 38.5919 29.1078 41.0438 28.0018 42.8581C26.9964 44.3293 25.3375 45.2609 23.0753 45.5552ZM25.9407 18.7811C25.8905 19.1243 26.0915 19.5166 26.4434 19.6147C26.7451 19.7128 27.0467 19.6147 27.298 19.5166C27.851 19.3205 28.6051 19.0263 29.2083 18.9282C29.4094 18.8792 29.5602 18.8792 29.711 18.9772C30.0127 19.1734 30.3143 20.056 30.1635 20.3503C29.6608 21.2329 28.5548 21.5762 27.7505 21.5762C27.1472 21.5271 26.4937 21.4781 25.8905 21.4781C23.4272 19.5657 21.0142 17.9475 18.6012 16.5744C15.9871 15.1033 13.3731 13.9264 10.7087 12.9947C11.5633 11.8179 12.5185 10.69 13.5741 9.66025C18.4001 4.95271 25.0359 2.05954 32.3754 2.05954C39.7149 2.05954 46.3506 4.95271 51.1766 9.66025C52.2323 10.69 53.2377 11.8669 54.0923 13.0438C51.4782 13.9264 48.9647 15.1033 46.4009 16.5254C44.1387 17.8004 41.8263 19.3695 39.4635 21.1349C39.2625 21.1349 39.0111 21.1349 38.7598 21.1839C37.6035 21.331 36.4976 21.282 35.1403 19.7618C34.4365 18.9772 33.783 17.31 34.3862 16.0841C35.1403 16.6725 35.9949 16.8687 36.6484 16.2312C37.2014 15.6918 37.8549 15.7408 38.1565 14.5639C38.3073 11.7688 36.2462 10.9842 35.3413 11.4256C35.4419 11.6217 35.3916 12.8476 34.9392 13.1419C35.2911 12.063 34.7884 10.1996 34.0343 9.31699C31.9732 7.01226 26.9964 7.74781 24.9856 10.69C24.8348 11.0333 24.9856 10.9842 24.9856 11.1804C24.9856 11.2294 24.9856 11.2785 24.9353 11.3765C24.7342 11.9159 24.6337 12.6025 24.9353 13.4851C25.0861 13.7793 25.1867 14.0245 24.9856 14.3187L24.7845 14.5149C24.7845 14.5149 25.0861 14.5639 25.1867 14.5639C25.1364 14.8581 25.0359 15.1033 24.9353 15.3975C24.885 15.4956 24.8348 15.5937 24.7845 15.6918C24.5834 15.986 24.2315 16.2802 24.3321 16.4764C24.3321 16.5254 24.4829 16.6235 24.5834 16.6725C24.684 16.7215 24.7845 16.7706 24.8348 16.7706C25.0861 16.9177 25.3375 17.0648 25.1867 17.31C25.1364 17.4081 25.0861 17.4081 25.0861 17.5061C25.1364 17.7513 25.438 17.6532 25.6391 17.7513C25.5386 17.8984 25.438 17.9475 25.438 18.0946C25.438 18.1926 25.4883 18.2417 25.5888 18.2907C25.7899 18.3888 25.9407 18.3398 25.9407 18.7811ZM39.1116 39.5236L39.1619 39.4746C39.4133 38.9352 40.3181 37.8564 40.7203 36.3363C41.5749 33.1489 42.3792 29.6673 42.882 26.4308C43.083 25.1068 42.882 23.7338 42.4295 22.655C42.0776 21.8704 41.4744 21.4291 40.7706 21.282C42.8317 19.7618 44.8425 18.4378 46.9036 17.2609C51.1263 14.8581 55.3491 13.2399 59.9237 12.4063C60.0243 12.4063 60.1248 12.3573 60.2253 12.3573C61.1805 12.2102 61.9848 12.4553 62.5881 12.9947C63.1913 13.5342 63.6437 14.4168 63.8951 15.4956C63.9454 15.6918 63.9956 15.937 64.0459 16.1331C64.5486 19.2715 64.0962 22.5079 62.9902 25.303C61.834 28.1471 60.0243 30.5009 57.8123 31.6778L57.7118 31.7268L57.6615 31.8249C57.1588 32.8546 56.6058 33.6883 55.9021 34.2767C55.0977 35.0123 54.1929 35.4536 53.2377 35.6007C52.2323 35.7478 51.1766 35.5517 50.0707 35.0123C48.9144 34.4729 47.6577 33.5902 46.4009 32.2662C46.2501 32.1191 46.1495 32.021 46.049 31.9229C45.9485 31.8249 45.8479 31.6778 45.6971 31.5307C45.5966 31.4326 45.496 31.3835 45.3955 31.3835C45.2949 31.3835 45.1944 31.3835 45.0939 31.4326C44.943 31.5306 44.8425 31.7268 44.8928 31.9229C44.9431 32.021 44.9933 32.1191 45.0939 32.2172C45.2949 32.4623 45.496 32.7075 45.6971 32.9037C49.568 37.4151 51.2772 40.7496 50.7242 42.8581C50.1209 45.1629 45.5463 46.2417 41.776 45.5552C41.776 45.5552 41.8263 45.7513 41.8263 45.9475C41.8765 46.1926 41.8765 46.4378 41.8765 46.4378C39.2122 46.1436 37.5533 45.1138 36.397 43.2995C35.3916 41.6813 34.9895 39.4256 35.2408 36.6305C35.2911 35.944 35.3413 35.8459 35.1905 35.1594L33.4311 27.7058C33.23 26.8231 33.5316 26.2347 33.984 25.8424C35.8441 24.2242 37.9554 22.5079 39.6646 21.1839C40.2176 21.1349 40.8711 21.282 40.8711 21.331C39.0111 22.7531 36.7489 24.5674 34.7381 26.3328C34.1851 26.627 33.984 26.9702 34.1851 27.6567L35.9446 35.0613C36.0451 35.6007 36.0451 36.0911 35.9949 36.5324C35.7938 39.2294 36.0954 41.289 37.0505 42.7601C38.0057 44.2802 39.7149 45.0158 41.6755 45.4571C41.223 43.2995 39.5641 40.2592 39.1619 39.5727C39.1116 39.4746 39.0614 39.4256 39.0111 39.3275C38.7095 38.9352 38.257 38.4448 37.7543 37.9545L40.3684 28.1961C40.7203 28.2452 40.5695 29.0788 40.3181 29.7653C39.5138 32.2662 38.6592 36.2872 38.2068 37.8074C38.4079 38.2977 38.7095 38.5919 39.0111 39.2785C39.0614 39.3765 39.1116 39.4256 39.1116 39.5236ZM26.2423 38.9842C26.2926 38.8862 26.3429 38.7881 26.3932 38.7391C26.6948 38.1016 26.9964 37.7093 27.1975 37.2189C26.7451 35.6988 26.1921 31.8249 25.438 29.4221C25.2369 28.7356 25.0359 27.9019 25.3877 27.8529L27.7002 37.4151C27.2478 37.8074 26.7953 38.3468 26.4937 38.7391C26.2926 39.0333 26.1418 39.2785 25.9407 39.5727C25.1867 40.7986 23.4272 43.6918 23.0753 45.5552C17.9477 45.8004 14.9314 44.8687 14.4287 42.8581C13.8758 40.7496 15.585 37.4151 19.4558 32.9037L19.5061 32.8546C19.7574 32.5604 19.858 32.4133 20.1093 32.1681C20.1596 32.0701 20.2601 31.972 20.2601 31.8739C20.2601 31.7758 20.2601 31.7268 20.2099 31.6287C20.1596 31.5306 20.1093 31.4816 20.0088 31.4326C19.9082 31.3835 19.8077 31.3345 19.7072 31.3835C19.6066 31.3835 19.5061 31.4326 19.4055 31.5307C19.2547 31.6778 19.1542 31.7758 19.0536 31.9229C18.9531 32.021 18.8526 32.1681 18.7017 32.2662C17.445 33.5412 16.2385 34.4729 15.032 35.0123C13.926 35.5517 12.8201 35.6988 11.8649 35.6007C10.9098 35.4536 10.0049 35.0123 9.20059 34.2767C8.54707 33.6392 7.94382 32.8546 7.44111 31.8249L7.39084 31.7268L7.2903 31.6778C5.12866 30.5009 3.26865 28.1471 2.11242 25.303C1.00646 22.4588 0.554028 19.2224 1.05674 16.0841C1.10701 15.8879 1.15728 15.6427 1.20755 15.4466C1.4589 14.3678 1.91134 13.4851 2.51459 12.9457C3.11783 12.4063 3.87189 12.1611 4.87731 12.3082C4.97785 12.3082 5.07839 12.3573 5.17893 12.3573C9.70329 13.2399 13.926 14.8091 18.199 17.2119C20.3607 18.4378 22.5223 19.8599 24.684 21.5271C24.3823 21.6252 24.131 21.7233 23.9299 21.8704C21.3661 23.6357 23.6283 35.1594 24.9856 36.9737C25.438 37.5622 25.7396 38.1996 26.1418 38.7881C26.1921 38.8862 26.1921 38.9352 26.2423 38.9842ZM56.2037 12.4063C57.3599 12.063 58.5161 11.8179 59.6724 11.5727C59.7729 11.5727 59.8734 11.5236 60.0243 11.5236C61.281 11.3275 62.2864 11.6708 63.0908 12.3573C63.8448 13.0438 64.3475 14.0245 64.6492 15.2504C64.6994 15.4956 64.7497 15.7408 64.8 15.986C65.3529 19.2715 64.8502 22.655 63.694 25.5482C63.0405 27.2154 62.1356 28.7356 61.0297 29.9615C60.527 36.9247 57.4604 43.2014 52.6847 47.8109C47.5069 52.8616 40.3181 56 32.3754 56C24.4326 56 17.2439 52.8616 12.066 47.8109C7.24003 43.1033 4.12325 36.7285 3.72108 29.6182C2.76594 28.4413 1.96161 27.0683 1.35836 25.5482C0.202133 22.655 -0.300574 19.2715 0.252404 15.986C0.352945 15.4466 0.453487 14.9072 0.65457 14.4168C0.956194 13.5832 1.40863 12.8967 1.96161 12.3573C2.71567 11.6708 3.77135 11.3275 5.02812 11.5236C5.12866 11.5236 5.27947 11.5727 5.38001 11.5727C6.48597 11.7688 7.54165 12.014 8.64761 12.3573C9.65302 10.8862 10.8595 9.4641 12.1666 8.23818C17.2439 3.13835 24.4326 0 32.3754 0C40.3181 0 47.5069 3.13835 52.6847 8.18914C53.9918 9.4641 55.1983 10.8862 56.2037 12.4063Z" fill="white"/>
</g>
<defs>
<clipPath id="clip0">
<rect width="65" height="56" fill="white"/>
</clipPath>
</defs>
</svg>

<svg width="65" height="56" fill="none" xmlns="http://www.w3.org/2000/svg"><g clip-path="url(#clip0)"><path fill-rule="evenodd" clip-rule="evenodd" d="M23.075 45.555c-.1.49-.1.785-.05.834-5.63.245-8.747-.883-9.4-3.335-.503-1.912.502-4.56 2.965-7.944-.402.245-.754.442-1.156.638-1.257.588-2.513.784-3.67.637-1.156-.147-2.212-.686-3.116-1.52-.704-.637-1.358-1.52-1.86-2.599-.252-.147-.453-.294-.704-.441.854 5.64 3.569 10.69 7.49 14.515 4.826 4.707 11.462 7.6 18.801 7.6 7.34 0 13.976-2.893 18.802-7.6 3.92-3.825 6.585-8.778 7.49-14.319-.15.098-.251.147-.402.245a8.745 8.745 0 01-1.86 2.6c-.905.833-1.96 1.372-3.117 1.52-1.156.146-2.363-.05-3.67-.638a13.535 13.535 0 01-1.156-.638c2.463 3.384 3.469 6.032 2.966 7.944-.905 3.384-6.787 3.629-9.652 3.335 0 .49-.1.883-.402 1.079-1.156.735-4.273 2.255-8.747 2.304-3.921.05-7.44-1.324-9.3-2.746-.201-.147-.302-.343-.302-.637 2.664-.294 4.575-1.324 5.73-3.139 1.057-1.667 1.409-3.922 1.157-6.865-.05-.54-.1-.588.05-1.078l1.81-7.65c.15-.736.05-1.275-.603-1.913a77.372 77.372 0 00-5.228-4.266c-.402 0-.805 0-1.207.098 1.86 1.373 3.67 2.893 5.58 4.61.553.441.604.931.503 1.618l-1.71 7.306c-.1.442-.1.834-.1 1.373.1 2.109.1 4.56-1.005 6.375-1.006 1.471-2.665 2.403-4.927 2.697zm2.866-26.774c-.05.343.15.736.502.834.302.098.604 0 .855-.098.553-.197 1.307-.49 1.91-.589.201-.049.352-.049.503.05.302.195.603 1.078.453 1.372-.503.883-1.61 1.226-2.414 1.226a23.597 23.597 0 00-1.86-.098c-2.463-1.912-4.876-3.53-7.289-4.904a48.98 48.98 0 00-7.892-3.58 25.996 25.996 0 012.865-3.334c4.826-4.707 11.462-7.6 18.801-7.6 7.34 0 13.976 2.893 18.802 7.6a26.817 26.817 0 012.915 3.384c-2.614.882-5.127 2.06-7.691 3.481-2.262 1.275-4.575 2.845-6.938 4.61-.2 0-.452 0-.703.049-1.157.147-2.262.098-3.62-1.422-.703-.785-1.357-2.452-.754-3.678.754.588 1.609.785 2.262.147.553-.54 1.207-.49 1.508-1.667.151-2.795-1.91-3.58-2.815-3.138.1.196.05 1.422-.402 1.716.352-1.079-.15-2.942-.905-3.825-2.06-2.305-7.038-1.57-9.048 1.373-.151.343 0 .294 0 .49 0 .05 0 .098-.05.197-.202.539-.302 1.225 0 2.108.15.294.25.54.05.834l-.201.196s.301.049.402.049c-.05.294-.151.54-.252.834l-.15.294c-.202.294-.553.588-.453.784 0 .05.15.148.251.197.101.049.202.098.252.098.251.147.502.294.352.539-.05.098-.1.098-.1.196.05.245.351.147.552.245-.1.147-.201.197-.201.344 0 .098.05.147.15.196.202.098.353.049.353.49zm13.17 20.743l.05-.05c.252-.539 1.157-1.618 1.56-3.138.854-3.187 1.658-6.669 2.161-9.905.201-1.324 0-2.697-.453-3.776-.351-.785-.955-1.226-1.658-1.373a62.476 62.476 0 016.133-4.021c4.222-2.403 8.445-4.021 13.02-4.855.1 0 .2-.049.301-.049.956-.147 1.76.098 2.363.638s1.056 1.422 1.307 2.5c.05.197.1.442.15.638.504 3.139.051 6.375-1.055 9.17-1.156 2.844-2.966 5.198-5.178 6.375l-.1.049-.05.098c-.503 1.03-1.056 1.863-1.76 2.452-.804.735-1.71 1.177-2.664 1.324-1.006.147-2.061-.05-3.167-.589-1.157-.54-2.413-1.422-3.67-2.746l-.352-.343c-.1-.098-.201-.245-.352-.392-.1-.098-.201-.147-.302-.147-.1 0-.2 0-.301.049a.46.46 0 00-.201.49c.05.098.1.196.2.294.202.245.403.49.604.687 3.871 4.511 5.58 7.846 5.027 9.954-.603 2.305-5.178 3.384-8.948 2.697 0 0 .05.196.05.392.05.246.05.49.05.49-2.664-.293-4.323-1.323-5.479-3.137-1.005-1.619-1.407-3.874-1.156-6.67.05-.686.1-.784-.05-1.47l-1.76-7.454c-.201-.883.1-1.471.553-1.864a136.391 136.391 0 015.68-4.658c.554-.05 1.207.098 1.207.147a122.19 122.19 0 00-6.133 5.002c-.553.294-.754.637-.553 1.324l1.76 7.404c.1.54.1 1.03.05 1.471-.201 2.697.1 4.757 1.056 6.228.955 1.52 2.664 2.256 4.624 2.697-.452-2.157-2.11-5.198-2.513-5.884-.05-.098-.1-.147-.15-.245a14.026 14.026 0 00-1.258-1.373l2.614-9.759c.352.05.201.883-.05 1.57-.804 2.5-1.659 6.521-2.111 8.041.2.49.502.785.804 1.471.05.099.1.148.1.246zm-12.869-.54c.05-.098.1-.196.151-.245.302-.637.603-1.03.805-1.52-.453-1.52-1.006-5.394-1.76-7.797-.201-.686-.402-1.52-.05-1.57l2.312 9.563c-.452.392-.905.932-1.206 1.324-.201.294-.352.54-.553.834-.754 1.226-2.514 4.119-2.866 5.982-5.127.245-8.144-.686-8.646-2.697-.553-2.108 1.156-5.443 5.027-9.954l.05-.05c.251-.294.352-.44.603-.686.05-.098.151-.196.151-.294 0-.098 0-.147-.05-.245a.388.388 0 00-.201-.196c-.1-.05-.201-.099-.302-.05-.1 0-.2.05-.302.148-.15.147-.25.245-.351.392-.1.098-.201.245-.352.343-1.257 1.275-2.464 2.207-3.67 2.746a5.864 5.864 0 01-3.167.589c-.955-.147-1.86-.589-2.664-1.324a8.682 8.682 0 01-1.76-2.452l-.05-.098-.1-.05c-2.162-1.176-4.022-3.53-5.179-6.374-1.106-2.844-1.558-6.08-1.055-9.219.05-.196.1-.441.15-.637.252-1.08.704-1.962 1.308-2.501.603-.54 1.357-.785 2.362-.638.1 0 .201.05.302.05 4.524.882 8.747 2.451 13.02 4.854a55.09 55.09 0 016.485 4.315c-.302.098-.553.196-.754.343-2.564 1.766-.302 13.29 1.056 15.104.452.588.754 1.226 1.156 1.814.05.098.05.147.1.196zm29.962-26.578c1.156-.343 2.312-.588 3.468-.833.1 0 .201-.05.352-.05 1.257-.195 2.262.148 3.067.834.754.687 1.256 1.668 1.558 2.893l.151.736c.553 3.285.05 6.669-1.106 9.562-.654 1.667-1.558 3.188-2.664 4.414a27.495 27.495 0 01-8.345 17.849C47.507 52.86 40.318 56 32.375 56c-7.942 0-15.131-3.138-20.309-8.19-4.826-4.707-7.943-11.082-8.345-18.192a15.573 15.573 0 01-2.363-4.07C.202 22.655-.3 19.272.252 15.986c.1-.54.201-1.079.403-1.57a5.425 5.425 0 011.307-2.059c.754-.686 1.81-1.03 3.066-.833.1 0 .251.049.352.049 1.106.196 2.162.441 3.268.784a25.247 25.247 0 013.519-4.119C17.244 3.138 24.433 0 32.375 0c7.943 0 15.132 3.138 20.31 8.19a25.943 25.943 0 013.519 4.216z" fill="#fff"/></g><defs><clipPath id="clip0"><path fill="#fff" d="M0 0h65v56H0z"/></clipPath></defs></svg>
